headset-off.svg

<svg fill="currentColor" viewBox="0 0 24 24"><path d="m1.5 4.77 2.07 2.07C3.2 7.82 3 8.89 3 10v10a3 3 0 0 0 3 3h6v-2H5v-1h4v-7.73l6 6V20h1.73l2.5 2.5 1.27-1.28L2.78 3.5zM12 1a8.96 8.96 0 0 0-6.45 2.72l1.41 1.42A6.94 6.94 0 0 1 12 3a7 7 0 0 1 7 7v2h-4v1.18l5.5 5.49c.31-.48.5-1.05.5-1.67v-7a9 9 0 0 0-9-9M5 12v-2c0-.54.06-1.06.17-1.56L8.73 12z"/></svg>

<svg  viewBox="0 0 24 24" fill="currentColor"><path  d="M1.5,4.77L3.57,6.84C3.2,7.82 3,8.89 3,10V20A3,3 0 0,0 6,23H12V21H5V20H9V12.27L15,18.27V20H16.73L19.23,22.5L20.5,21.22L2.78,3.5L1.5,4.77M12,1C9.47,1 7.18,2.04 5.55,3.72L6.96,5.14C8.23,3.82 10,3 12,3A7,7 0 0,1 19,10V12H15V13.18L20.5,18.67C20.81,18.19 21,17.62 21,17V10A9,9 0 0,0 12,1M5,12V10C5,9.46 5.06,8.94 5.17,8.44L8.73,12H5Z"/></svg>
